X: 9377
T: Dancing The Baby
R: barndance
M: 4/4
K: Dmajor
FAAA GAAA|FAAA GFED|FAAA GAAA|FADE FEDE|
FAAA GAAA|FAAA GFED|DFFF DFEF|DAGA D4||
DFFF AFFF|DFFF GFEC|DFFF AFFF|DADF AFEF|
DFFF AFFF|DFFF GFEC|DFFF DFEF|DAGA D4||

